svgs/duotone/headphones.svg

<svg xmlns="http://www.w3.org/2000/svg" viewBox="0 0 512 512"><!--! Font Awesome Pro 6.3.0 by @fontawesome - https://fontawesome.com License - https://fontawesome.com/license (Commercial License) Copyright 2023 Fonticons, Inc. --><defs><style>.fa-secondary{opacity:.4}</style></defs><path class="fa-primary" d="M80 256C35.89 256 0 291.9 0 336.1l.0042 63.81C.0042 444.1 35.89 480 80 480C106.5 480 128 458.4 128 431.9V304.1C128 277.6 106.5 256 80 256zM432 256C405.5 256 384 277.6 384 304.1v127.9C384 458.4 405.5 480 432 480c44.11 0 79.1-35.88 79.1-80.06L512 336.1C512 291.9 476.1 256 432 256z"/><path class="fa-secondary" d="M511.1 399.9C511.1 399.9 511.1 400 511.1 399.9C511.1 399.1 511.1 399.9 511.1 399.9zM.0042 399.9C.0042 399.1 .0042 399.9 .0042 399.9C.0042 399.9 .0042 400 .0042 399.9zM256 32C112.9 32 4.563 151.1 0 288v48.13c0-33.47 20.64-62.13 49.8-74.1C62.66 159.6 150.2 80.14 256 80.13c105.8 .0137 193.3 79.49 206.2 181.9C491.4 273.1 512 302.7 512 336.1V287.9C507.4 151 399.1 32 256 32z"/></svg>

<svg xmlns="http://www.w3.org/2000/svg" viewBox="0 0 512 512"><!--! Font Awesome Pro 6.4.0 by @fontawesome - https://fontawesome.com License - https://fontawesome.com/license (Commercial License) Copyright 2023 Fonticons, Inc. --><defs><style>.fa-secondary{opacity:.4}</style></defs><path class="fa-primary" d="M80 256c-44.2 0-80 35.8-80 80v64c0 44.2 35.8 80 80 80c26.5 0 48-21.5 48-48V304c0-26.5-21.5-48-48-48zm352 0c-26.5 0-48 21.5-48 48V432c0 26.5 21.5 48 48 48c44.2 0 80-35.8 80-80V336c0-44.2-35.8-80-80-80z"/><path class="fa-secondary" d="M49.6 262C62.4 159.4 149.9 80 256 80s193.6 79.4 206.4 182c29.1 12 49.6 40.6 49.6 74V288C512 146.6 397.4 32 256 32S0 146.6 0 288v48c0-33.4 20.5-62.1 49.6-74z"/></svg>
